src/client/assets/pup/icons/forge.svg

<svg width="211" height="211" viewBox="0 0 211 211" fill="none" xmlns="http://www.w3.org/2000/svg">
<rect x="23.7452" y="105.77" width="116" height="116" transform="rotate(-45 23.7452 105.77)" fill="#A0A0A0"/>
<g clip-path="url(#clip0_19_119)">
<path d="M119.28 90.4195C116.077 88.2043 111.026 90.7156 111.737 94.2367C112.477 97.9005 109.821 99.2947 108.478 101.604C107.859 102.669 107.028 102.589 106.04 102.026C103.109 100.356 100.255 98.5911 97.9947 96.0329C97.3763 95.3331 96.3373 94.4767 97.083 93.5642C98.7466 91.5285 99.4341 88.6796 102.73 87.9788C106.053 87.2724 107.636 84.6407 107.353 81.2266C107.237 79.8324 107.368 78.7279 108.173 77.5391C114.376 68.3844 127.722 64.0528 137.906 67.9613C138.669 68.2541 139.773 68.3663 139.735 69.3848C139.693 70.5126 138.897 71.3522 137.757 71.6432C136.95 71.8493 136.102 71.8938 135.272 72.0104C131.021 72.3833 126.53 74.3999 124.309 76.8347C121.936 79.4363 122.025 81.7206 124.731 83.8584L129.481 87.3361L123.898 94.0053L119.28 90.4195Z" fill="#AAB8B9"/>
<path d="M161.47 112.57L157.12 118.343C156.214 119.546 154.503 119.786 153.3 118.88L124.548 97.2135C123.345 96.307 123.105 94.5968 124.012 93.3938L128.361 87.6214C129.268 86.4184 130.978 86.178 132.181 87.0845L160.933 108.751C162.136 109.657 162.377 111.367 161.47 112.57Z" fill="#8E6049"/>
<path d="M101.249 95.5375C101.046 95.5663 100.839 95.5547 100.641 95.5033C100.442 95.4519 100.255 95.3617 100.092 95.2379C99.4022 94.7185 99.2645 93.7386 99.7839 93.0493L101.318 91.0136C101.837 90.3242 102.817 90.1865 103.507 90.706C104.196 91.2254 104.334 92.2053 103.814 92.8946L102.28 94.9304C102.157 95.0945 102.002 95.2326 101.825 95.3368C101.648 95.4409 101.453 95.5091 101.249 95.5375ZM111.71 80.433L114.202 77.1265C114.721 76.4371 114.584 75.4573 113.894 74.9378C113.205 74.4184 112.225 74.5561 111.706 75.2454L109.214 78.5519C108.695 79.2413 108.832 80.2211 109.522 80.7406C109.866 81.0003 110.284 81.0957 110.68 81.0401C111.076 80.9844 111.451 80.7777 111.71 80.433Z" fill="#D3E2E2"/>
<path d="M110.486 91.5686C110.283 91.5974 110.076 91.5858 109.877 91.5344C109.679 91.483 109.492 91.3929 109.328 91.2691L107.328 89.7617C106.639 89.2422 106.501 88.2624 107.02 87.573C107.54 86.8837 108.52 86.746 109.209 87.2655L111.209 88.7729C111.899 89.2923 112.036 90.2722 111.517 90.9615C111.394 91.1256 111.239 91.2637 111.062 91.3679C110.885 91.4721 110.69 91.5403 110.486 91.5686Z" fill="#909999"/>
</g>
<g clip-path="url(#clip1_19_119)">
<path d="M79.01 125.226H72.9333C64.9121 125.226 58.3492 118.663 58.3492 110.642H79.01V125.226Z" fill="#565656"/>
<path d="M105.748 147.102H81.4407C87.8819 141.269 87.8819 131.06 81.4407 125.226H105.748C99.3062 131.06 99.3062 141.269 105.748 147.102Z" fill="#565656"/>
<path d="M110.609 151.963H76.5793C75.2425 151.963 74.1487 150.87 74.1487 149.533C74.1487 148.196 75.2424 147.102 76.5793 147.102H110.609C111.946 147.102 113.039 148.196 113.039 149.533C113.039 150.87 111.946 151.963 110.609 151.963Z" fill="#7F7C79"/>
<path d="M128.839 106.996H79.01V114.288H127.259C128.231 112.1 128.839 109.548 128.839 106.996Z" fill="#7F7C79"/>
<path d="M102.223 130.087C103.074 128.264 104.168 126.685 105.748 125.226H81.4407C83.0206 126.685 84.2359 128.264 84.9652 130.087H102.223Z" fill="#7F7C79"/>
<path d="M79.01 114.288V125.226H110.609C118.144 125.226 124.464 120.729 127.259 114.288H79.01Z" fill="#3D3737"/>
</g>
<rect width="0.688489" height="5.13044" transform="matrix(0.158482 -0.987362 0.938132 0.346276 77.2432 95.4325)" fill="#C4FFFF"/>
<rect x="81.9855" y="88.788" width="0.644135" height="5.38037" transform="rotate(-45 81.9855 88.788)" fill="#C4FFFF"/>
<rect width="0.688488" height="5.13044" transform="matrix(0.987362 -0.158482 0.346277 0.938133 88.6299 84.0458)" fill="#C4FFFF"/>
<g filter="url(#filter0_d_19_119)">
<g clip-path="url(#paint0_angular_19_119_clip_path)" data-figma-skip-parse="true"><g transform="matrix(0.0452548 0.0452548 -0.0452548 0.0452548 105.255 105.255)"><foreignObject x="-1250" y="-1250" width="2500" height="2500"><div xmlns="http://www.w3.org/1999/xhtml" style="background:conic-gradient(from 90deg,rgba(0, 0, 0, 1) 0deg,rgba(47, 10, 47, 1) 22.5deg,rgba(0, 0, 0, 1) 45deg,rgba(47, 10, 47, 1) 67.5deg,rgba(0, 0, 0, 1) 90deg,rgba(47, 10, 47, 1) 112.5deg,rgba(0, 0, 0, 1) 135deg,rgba(47, 10, 47, 1) 157.5deg,rgba(0, 0, 0, 1) 180deg,rgba(47, 10, 47, 1) 202.5deg,rgba(0, 0, 0, 1) 225deg,rgba(47, 10, 47, 1) 247.5deg,rgba(0, 0, 0, 1) 270deg,rgba(47, 10, 47, 1) 292.5deg,rgba(0, 0, 0, 1) 315deg,rgba(47, 10, 47, 1) 337.5deg,rgba(0, 0, 0, 1) 360deg);height:100%;width:100%;opacity:1"></div></foreignObject></g></g><path d="M37.3726 82.6274L43.0294 88.2843L88.2843 43.0294L82.6274 37.3726L76.9706 31.7157L31.7157 76.9706L37.3726 82.6274ZM127.882 37.3726L122.225 43.0294L167.48 88.2843L173.137 82.6274L178.794 76.9706L133.539 31.7157L127.882 37.3726ZM173.137 127.882L167.48 122.225L122.225 167.48L127.882 173.137L133.539 178.794L178.794 133.539L173.137 127.882ZM82.6274 173.137L88.2843 167.48L43.0294 122.225L37.3726 127.882L31.7157 133.539L76.9706 178.794L82.6274 173.137ZM127.882 173.137L122.225 167.48C112.853 176.853 97.6569 176.853 88.2843 167.48L82.6274 173.137L76.9706 178.794C92.5915 194.415 117.918 194.415 133.539 178.794L127.882 173.137ZM173.137 82.6274L167.48 88.2843C176.853 97.6569 176.853 112.853 167.48 122.225L173.137 127.882L178.794 133.539C194.415 117.918 194.415 92.5915 178.794 76.9706L173.137 82.6274ZM82.6274 37.3726L88.2843 43.0294C97.6569 33.6569 112.853 33.6569 122.225 43.0294L127.882 37.3726L133.539 31.7157C117.918 16.0948 92.5915 16.0948 76.9706 31.7157L82.6274 37.3726ZM37.3726 82.6274L31.7157 76.9706C16.0948 92.5915 16.0948 117.918 31.7157 133.539L37.3726 127.882L43.0294 122.225C33.6569 112.853 33.6569 97.6569 43.0294 88.2843L37.3726 82.6274Z" data-figma-gradient-fill="{&#34;type&#34;:&#34;GRADIENT_ANGULAR&#34;,&#34;stops&#34;:[{&#34;color&#34;:{&#34;r&#34;:0.0,&#34;g&#34;:0.0,&#34;b&#34;:0.0,&#34;a&#34;:1.0},&#34;position&#34;:0.0},{&#34;color&#34;:{&#34;r&#34;:0.18431372940540314,&#34;g&#34;:0.039215687662363052,&#34;b&#34;:0.18431372940540314,&#34;a&#34;:1.0},&#34;position&#34;:0.06250},{&#34;color&#34;:{&#34;r&#34;:0.0,&#34;g&#34;:0.0,&#34;b&#34;:0.0,&#34;a&#34;:1.0},&#34;position&#34;:0.1250},{&#34;color&#34;:{&#34;r&#34;:0.18431372940540314,&#34;g&#34;:0.039215687662363052,&#34;b&#34;:0.18431372940540314,&#34;a&#34;:1.0},&#34;position&#34;:0.18750},{&#34;color&#34;:{&#34;r&#34;:0.0,&#34;g&#34;:0.0,&#34;b&#34;:0.0,&#34;a&#34;:1.0},&#34;position&#34;:0.250},{&#34;color&#34;:{&#34;r&#34;:0.18431372940540314,&#34;g&#34;:0.039215687662363052,&#34;b&#34;:0.18431372940540314,&#34;a&#34;:1.0},&#34;position&#34;:0.31250},{&#34;color&#34;:{&#34;r&#34;:0.0,&#34;g&#34;:0.0,&#34;b&#34;:0.0,&#34;a&#34;:1.0},&#34;position&#34;:0.3750},{&#34;color&#34;:{&#34;r&#34;:0.18431372940540314,&#34;g&#34;:0.039215687662363052,&#34;b&#34;:0.18431372940540314,&#34;a&#34;:1.0},&#34;position&#34;:0.43750},{&#34;color&#34;:{&#34;r&#34;:0.0,&#34;g&#34;:0.0,&#34;b&#34;:0.0,&#34;a&#34;:1.0},&#34;position&#34;:0.50},{&#34;color&#34;:{&#34;r&#34;:0.18431372940540314,&#34;g&#34;:0.039215687662363052,&#34;b&#34;:0.18431372940540314,&#34;a&#34;:1.0},&#34;position&#34;:0.56250},{&#34;color&#34;:{&#34;r&#34;:0.0,&#34;g&#34;:0.0,&#34;b&#34;:0.0,&#34;a&#34;:1.0},&#34;position&#34;:0.6250},{&#34;color&#34;:{&#34;r&#34;:0.18431372940540314,&#34;g&#34;:0.039215687662363052,&#34;b&#34;:0.18431372940540314,&#34;a&#34;:1.0},&#34;position&#34;:0.68750},{&#34;color&#34;:{&#34;r&#34;:0.0,&#34;g&#34;:0.0,&#34;b&#34;:0.0,&#34;a&#34;:1.0},&#34;position&#34;:0.750},{&#34;color&#34;:{&#34;r&#34;:0.18431372940540314,&#34;g&#34;:0.039215687662363052,&#34;b&#34;:0.18431372940540314,&#34;a&#34;:1.0},&#34;position&#34;:0.81250},{&#34;color&#34;:{&#34;r&#34;:0.0,&#34;g&#34;:0.0,&#34;b&#34;:0.0,&#34;a&#34;:1.0},&#34;position&#34;:0.8750},{&#34;color&#34;:{&#34;r&#34;:0.18431372940540314,&#34;g&#34;:0.039215687662363052,&#34;b&#34;:0.18431372940540314,&#34;a&#34;:1.0},&#34;position&#34;:0.93750},{&#34;color&#34;:{&#34;r&#34;:0.0,&#34;g&#34;:0.0,&#34;b&#34;:0.0,&#34;a&#34;:1.0},&#34;position&#34;:1.0}],&#34;stopsVar&#34;:[{&#34;color&#34;:{&#34;r&#34;:0.0,&#34;g&#34;:0.0,&#34;b&#34;:0.0,&#34;a&#34;:1.0},&#34;position&#34;:0.0},{&#34;color&#34;:{&#34;r&#34;:0.18431372940540314,&#34;g&#34;:0.039215687662363052,&#34;b&#34;:0.18431372940540314,&#34;a&#34;:1.0},&#34;position&#34;:0.06250},{&#34;color&#34;:{&#34;r&#34;:0.0,&#34;g&#34;:0.0,&#34;b&#34;:0.0,&#34;a&#34;:1.0},&#34;position&#34;:0.1250},{&#34;color&#34;:{&#34;r&#34;:0.18431372940540314,&#34;g&#34;:0.039215687662363052,&#34;b&#34;:0.18431372940540314,&#34;a&#34;:1.0},&#34;position&#34;:0.18750},{&#34;color&#34;:{&#34;r&#34;:0.0,&#34;g&#34;:0.0,&#34;b&#34;:0.0,&#34;a&#34;:1.0},&#34;position&#34;:0.250},{&#34;color&#34;:{&#34;r&#34;:0.18431372940540314,&#34;g&#34;:0.039215687662363052,&#34;b&#34;:0.18431372940540314,&#34;a&#34;:1.0},&#34;position&#34;:0.31250},{&#34;color&#34;:{&#34;r&#34;:0.0,&#34;g&#34;:0.0,&#34;b&#34;:0.0,&#34;a&#34;:1.0},&#34;position&#34;:0.3750},{&#34;color&#34;:{&#34;r&#34;:0.18431372940540314,&#34;g&#34;:0.039215687662363052,&#34;b&#34;:0.18431372940540314,&#34;a&#34;:1.0},&#34;position&#34;:0.43750},{&#34;color&#34;:{&#34;r&#34;:0.0,&#34;g&#34;:0.0,&#34;b&#34;:0.0,&#34;a&#34;:1.0},&#34;position&#34;:0.50},{&#34;color&#34;:{&#34;r&#34;:0.18431372940540314,&#34;g&#34;:0.039215687662363052,&#34;b&#34;:0.18431372940540314,&#34;a&#34;:1.0},&#34;position&#34;:0.56250},{&#34;color&#34;:{&#34;r&#34;:0.0,&#34;g&#34;:0.0,&#34;b&#34;:0.0,&#34;a&#34;:1.0},&#34;position&#34;:0.6250},{&#34;color&#34;:{&#34;r&#34;:0.18431372940540314,&#34;g&#34;:0.039215687662363052,&#34;b&#34;:0.18431372940540314,&#34;a&#34;:1.0},&#34;position&#34;:0.68750},{&#34;color&#34;:{&#34;r&#34;:0.0,&#34;g&#34;:0.0,&#34;b&#34;:0.0,&#34;a&#34;:1.0},&#34;position&#34;:0.750},{&#34;color&#34;:{&#34;r&#34;:0.18431372940540314,&#34;g&#34;:0.039215687662363052,&#34;b&#34;:0.18431372940540314,&#34;a&#34;:1.0},&#34;position&#34;:0.81250},{&#34;color&#34;:{&#34;r&#34;:0.0,&#34;g&#34;:0.0,&#34;b&#34;:0.0,&#34;a&#34;:1.0},&#34;position&#34;:0.8750},{&#34;color&#34;:{&#34;r&#34;:0.18431372940540314,&#34;g&#34;:0.039215687662363052,&#34;b&#34;:0.18431372940540314,&#34;a&#34;:1.0},&#34;position&#34;:0.93750},{&#34;color&#34;:{&#34;r&#34;:0.0,&#34;g&#34;:0.0,&#34;b&#34;:0.0,&#34;a&#34;:1.0},&#34;position&#34;:1.0}],&#34;transform&#34;:{&#34;m00&#34;:90.509666442871094,&#34;m01&#34;:-90.509666442871094,&#34;m02&#34;:105.25484466552734,&#34;m10&#34;:90.509666442871094,&#34;m11&#34;:90.509666442871094,&#34;m12&#34;:14.745170593261719},&#34;opacity&#34;:1.0,&#34;blendMode&#34;:&#34;NORMAL&#34;,&#34;visible&#34;:true}"/>
</g>
<defs>
<filter id="filter0_d_19_119" x="0" y="1.52588e-05" width="210.51" height="210.51" filterUnits="userSpaceOnUse" color-interpolation-filters="sRGB">
<feFlood flood-opacity="0" result="BackgroundImageFix"/>
<feColorMatrix in="SourceAlpha" type="matrix" values="0 0 0 0 0 0 0 0 0 0 0 0 0 0 0 0 0 0 127 0" result="hardAlpha"/>
<feMorphology radius="4" operator="dilate" in="SourceAlpha" result="effect1_dropShadow_19_119"/>
<feOffset/>
<feGaussianBlur stdDeviation="8"/>
<feComposite in2="hardAlpha" operator="out"/>
<feColorMatrix type="matrix" values="0 0 0 0 0.0431373 0 0 0 0 0.00784314 0 0 0 0 0.0431373 0 0 0 0.5 0"/>
<feBlend mode="normal" in2="BackgroundImageFix" result="effect1_dropShadow_19_119"/>
<feBlend mode="normal" in="SourceGraphic" in2="effect1_dropShadow_19_119" result="shape"/>
</filter>
<clipPath id="paint0_angular_19_119_clip_path"><path d="M37.3726 82.6274L43.0294 88.2843L88.2843 43.0294L82.6274 37.3726L76.9706 31.7157L31.7157 76.9706L37.3726 82.6274ZM127.882 37.3726L122.225 43.0294L167.48 88.2843L173.137 82.6274L178.794 76.9706L133.539 31.7157L127.882 37.3726ZM173.137 127.882L167.48 122.225L122.225 167.48L127.882 173.137L133.539 178.794L178.794 133.539L173.137 127.882ZM82.6274 173.137L88.2843 167.48L43.0294 122.225L37.3726 127.882L31.7157 133.539L76.9706 178.794L82.6274 173.137ZM127.882 173.137L122.225 167.48C112.853 176.853 97.6569 176.853 88.2843 167.48L82.6274 173.137L76.9706 178.794C92.5915 194.415 117.918 194.415 133.539 178.794L127.882 173.137ZM173.137 82.6274L167.48 88.2843C176.853 97.6569 176.853 112.853 167.48 122.225L173.137 127.882L178.794 133.539C194.415 117.918 194.415 92.5915 178.794 76.9706L173.137 82.6274ZM82.6274 37.3726L88.2843 43.0294C97.6569 33.6569 112.853 33.6569 122.225 43.0294L127.882 37.3726L133.539 31.7157C117.918 16.0948 92.5915 16.0948 76.9706 31.7157L82.6274 37.3726ZM37.3726 82.6274L31.7157 76.9706C16.0948 92.5915 16.0948 117.918 31.7157 133.539L37.3726 127.882L43.0294 122.225C33.6569 112.853 33.6569 97.6569 43.0294 88.2843L37.3726 82.6274Z"/></clipPath><clipPath id="clip0_19_119">
<rect width="62.7999" height="62.7999" fill="white" transform="translate(93.2806 69.9799) rotate(-8)"/>
</clipPath>
<clipPath id="clip1_19_119">
<rect width="70.4897" height="70.4897" fill="white" transform="translate(58.3492 94.2349)"/>
</clipPath>
</defs>
</svg>

<svg width="211" height="211" fill="none" xmlns="http://www.w3.org/2000/svg"><path fill="#A0A0A0" d="m23.745 105.77 82.024-82.024 82.025 82.024-82.025 82.025z"/><g clip-path="url(#a)"><path d="M119.28 90.42c-3.203-2.216-8.254.296-7.543 3.817.74 3.663-1.916 5.058-3.259 7.367-.619 1.065-1.45.985-2.438.422-2.931-1.67-5.785-3.435-8.045-5.993-.619-.7-1.658-1.556-.912-2.469 1.664-2.035 2.351-4.884 5.647-5.585 3.323-.707 4.906-3.338 4.623-6.752-.116-1.395.015-2.5.82-3.688 6.203-9.155 19.549-13.486 29.733-9.578.763.293 1.867.405 1.829 1.424-.042 1.128-.838 1.967-1.978 2.258-.807.206-1.655.25-2.485.367-4.251.373-8.742 2.39-10.963 4.825-2.373 2.601-2.284 4.886.422 7.023l4.75 3.478-5.583 6.67-4.618-3.587z" fill="#AAB8B9"/><path d="m161.47 112.57-4.35 5.773a2.728 2.728 0 0 1-3.82.537l-28.752-21.666a2.727 2.727 0 0 1-.536-3.82l4.349-5.773a2.728 2.728 0 0 1 3.82-.536l28.752 21.666a2.726 2.726 0 0 1 .537 3.819z" fill="#8E6049"/><path d="M101.249 95.537a1.553 1.553 0 0 1-1.157-.3c-.69-.518-.828-1.498-.308-2.188l1.534-2.035a1.563 1.563 0 1 1 2.496 1.88l-1.534 2.036a1.553 1.553 0 0 1-1.031.607zm10.461-15.104 2.492-3.307a1.563 1.563 0 0 0-2.496-1.88l-2.492 3.306a1.563 1.563 0 0 0 2.496 1.881z" fill="#D3E2E2"/><path d="M110.486 91.569a1.56 1.56 0 0 1-1.158-.3l-2-1.507a1.564 1.564 0 0 1 1.881-2.496l2 1.507a1.563 1.563 0 0 1-.723 2.796z" fill="#909999"/></g><g clip-path="url(#b)"><path d="M79.01 125.226h-6.077c-8.02 0-14.584-6.563-14.584-14.584H79.01v14.584zM105.748 147.102H81.441c6.44-5.833 6.44-16.042 0-21.876h24.307c-6.442 5.834-6.442 16.043 0 21.876z" fill="#565656"/><path d="M110.609 151.963h-34.03a2.437 2.437 0 0 1-2.43-2.43 2.438 2.438 0 0 1 2.43-2.431h34.03a2.437 2.437 0 0 1 2.43 2.431 2.436 2.436 0 0 1-2.43 2.43zM128.839 106.996H79.01v7.292h48.249c.972-2.188 1.58-4.74 1.58-7.292zM102.223 130.087c.851-1.823 1.945-3.402 3.525-4.861H81.441c1.58 1.459 2.795 3.038 3.524 4.861h17.258z" fill="#7F7C79"/><path d="M79.01 114.288v10.938h31.599c7.535 0 13.855-4.497 16.65-10.938H79.01z" fill="#3D3737"/></g><path fill="#C4FFFF" d="m77.243 95.433.11-.68 4.812 1.777-.11.679zM81.986 88.788l.455-.456 3.804 3.805-.455.455zM88.63 84.046l.68-.11 1.776 4.813-.68.11z"/><g filter="url(#c)"><g clip-path="url(#d)" data-figma-skip-parse="true"><foreignObject x="-1250" y="-1250" width="2500" height="2500" transform="rotate(45 -74.426 179.682) scale(.064)"><div xmlns="http://www.w3.org/1999/xhtml" style="background:conic-gradient(from 90deg,#000 0deg,#2f0a2f 22.5deg,#000 45deg,#2f0a2f 67.5deg,#000 90deg,#2f0a2f 112.5deg,#000 135deg,#2f0a2f 157.5deg,#000 180deg,#2f0a2f 202.5deg,#000 225deg,#2f0a2f 247.5deg,#000 270deg,#2f0a2f 292.5deg,#000 315deg,#2f0a2f 337.5deg,#000 360deg);height:100%;width:100%;opacity:1"/></foreignObject></g><path d="m37.373 82.627 5.656 5.657L88.284 43.03l-5.657-5.656-5.656-5.657L31.716 76.97l5.657 5.656zm90.509-45.254-5.657 5.656 45.255 45.255 5.657-5.657 5.657-5.656-45.255-45.255-5.657 5.657zm45.255 90.509-5.657-5.657-45.255 45.255 5.657 5.657 5.657 5.657 45.255-45.255-5.657-5.657zm-90.51 45.255 5.657-5.657-45.255-45.255-5.656 5.657-5.657 5.657 45.255 45.255 5.656-5.657zm45.255 0-5.657-5.657c-9.372 9.373-24.568 9.373-33.94 0l-5.658 5.657-5.656 5.657c15.62 15.621 40.947 15.621 56.568 0l-5.657-5.657zm45.255-90.51-5.657 5.657c9.373 9.373 9.373 24.569 0 33.941l5.657 5.657 5.657 5.657c15.621-15.621 15.621-40.947 0-56.568l-5.657 5.656zm-90.51-45.254 5.657 5.656c9.373-9.372 24.569-9.372 33.941 0l5.657-5.656 5.657-5.657c-15.621-15.621-40.947-15.621-56.568 0l5.656 5.657zM37.373 82.627l-5.657-5.656c-15.621 15.62-15.621 40.947 0 56.568l5.657-5.657 5.656-5.657c-9.372-9.372-9.372-24.568 0-33.94l-5.656-5.658z" data-figma-gradient-fill="{&quot;type&quot;:&quot;GRADIENT_ANGULAR&quot;,&quot;stops&quot;:[{&quot;color&quot;:{&quot;r&quot;:0.0,&quot;g&quot;:0.0,&quot;b&quot;:0.0,&quot;a&quot;:1.0},&quot;position&quot;:0.0},{&quot;color&quot;:{&quot;r&quot;:0.18431372940540314,&quot;g&quot;:0.039215687662363052,&quot;b&quot;:0.18431372940540314,&quot;a&quot;:1.0},&quot;position&quot;:0.06250},{&quot;color&quot;:{&quot;r&quot;:0.0,&quot;g&quot;:0.0,&quot;b&quot;:0.0,&quot;a&quot;:1.0},&quot;position&quot;:0.1250},{&quot;color&quot;:{&quot;r&quot;:0.18431372940540314,&quot;g&quot;:0.039215687662363052,&quot;b&quot;:0.18431372940540314,&quot;a&quot;:1.0},&quot;position&quot;:0.18750},{&quot;color&quot;:{&quot;r&quot;:0.0,&quot;g&quot;:0.0,&quot;b&quot;:0.0,&quot;a&quot;:1.0},&quot;position&quot;:0.250},{&quot;color&quot;:{&quot;r&quot;:0.18431372940540314,&quot;g&quot;:0.039215687662363052,&quot;b&quot;:0.18431372940540314,&quot;a&quot;:1.0},&quot;position&quot;:0.31250},{&quot;color&quot;:{&quot;r&quot;:0.0,&quot;g&quot;:0.0,&quot;b&quot;:0.0,&quot;a&quot;:1.0},&quot;position&quot;:0.3750},{&quot;color&quot;:{&quot;r&quot;:0.18431372940540314,&quot;g&quot;:0.039215687662363052,&quot;b&quot;:0.18431372940540314,&quot;a&quot;:1.0},&quot;position&quot;:0.43750},{&quot;color&quot;:{&quot;r&quot;:0.0,&quot;g&quot;:0.0,&quot;b&quot;:0.0,&quot;a&quot;:1.0},&quot;position&quot;:0.50},{&quot;color&quot;:{&quot;r&quot;:0.18431372940540314,&quot;g&quot;:0.039215687662363052,&quot;b&quot;:0.18431372940540314,&quot;a&quot;:1.0},&quot;position&quot;:0.56250},{&quot;color&quot;:{&quot;r&quot;:0.0,&quot;g&quot;:0.0,&quot;b&quot;:0.0,&quot;a&quot;:1.0},&quot;position&quot;:0.6250},{&quot;color&quot;:{&quot;r&quot;:0.18431372940540314,&quot;g&quot;:0.039215687662363052,&quot;b&quot;:0.18431372940540314,&quot;a&quot;:1.0},&quot;position&quot;:0.68750},{&quot;color&quot;:{&quot;r&quot;:0.0,&quot;g&quot;:0.0,&quot;b&quot;:0.0,&quot;a&quot;:1.0},&quot;position&quot;:0.750},{&quot;color&quot;:{&quot;r&quot;:0.18431372940540314,&quot;g&quot;:0.039215687662363052,&quot;b&quot;:0.18431372940540314,&quot;a&quot;:1.0},&quot;position&quot;:0.81250},{&quot;color&quot;:{&quot;r&quot;:0.0,&quot;g&quot;:0.0,&quot;b&quot;:0.0,&quot;a&quot;:1.0},&quot;position&quot;:0.8750},{&quot;color&quot;:{&quot;r&quot;:0.18431372940540314,&quot;g&quot;:0.039215687662363052,&quot;b&quot;:0.18431372940540314,&quot;a&quot;:1.0},&quot;position&quot;:0.93750},{&quot;color&quot;:{&quot;r&quot;:0.0,&quot;g&quot;:0.0,&quot;b&quot;:0.0,&quot;a&quot;:1.0},&quot;position&quot;:1.0}],&quot;stopsVar&quot;:[{&quot;color&quot;:{&quot;r&quot;:0.0,&quot;g&quot;:0.0,&quot;b&quot;:0.0,&quot;a&quot;:1.0},&quot;position&quot;:0.0},{&quot;color&quot;:{&quot;r&quot;:0.18431372940540314,&quot;g&quot;:0.039215687662363052,&quot;b&quot;:0.18431372940540314,&quot;a&quot;:1.0},&quot;position&quot;:0.06250},{&quot;color&quot;:{&quot;r&quot;:0.0,&quot;g&quot;:0.0,&quot;b&quot;:0.0,&quot;a&quot;:1.0},&quot;position&quot;:0.1250},{&quot;color&quot;:{&quot;r&quot;:0.18431372940540314,&quot;g&quot;:0.039215687662363052,&quot;b&quot;:0.18431372940540314,&quot;a&quot;:1.0},&quot;position&quot;:0.18750},{&quot;color&quot;:{&quot;r&quot;:0.0,&quot;g&quot;:0.0,&quot;b&quot;:0.0,&quot;a&quot;:1.0},&quot;position&quot;:0.250},{&quot;color&quot;:{&quot;r&quot;:0.18431372940540314,&quot;g&quot;:0.039215687662363052,&quot;b&quot;:0.18431372940540314,&quot;a&quot;:1.0},&quot;position&quot;:0.31250},{&quot;color&quot;:{&quot;r&quot;:0.0,&quot;g&quot;:0.0,&quot;b&quot;:0.0,&quot;a&quot;:1.0},&quot;position&quot;:0.3750},{&quot;color&quot;:{&quot;r&quot;:0.18431372940540314,&quot;g&quot;:0.039215687662363052,&quot;b&quot;:0.18431372940540314,&quot;a&quot;:1.0},&quot;position&quot;:0.43750},{&quot;color&quot;:{&quot;r&quot;:0.0,&quot;g&quot;:0.0,&quot;b&quot;:0.0,&quot;a&quot;:1.0},&quot;position&quot;:0.50},{&quot;color&quot;:{&quot;r&quot;:0.18431372940540314,&quot;g&quot;:0.039215687662363052,&quot;b&quot;:0.18431372940540314,&quot;a&quot;:1.0},&quot;position&quot;:0.56250},{&quot;color&quot;:{&quot;r&quot;:0.0,&quot;g&quot;:0.0,&quot;b&quot;:0.0,&quot;a&quot;:1.0},&quot;position&quot;:0.6250},{&quot;color&quot;:{&quot;r&quot;:0.18431372940540314,&quot;g&quot;:0.039215687662363052,&quot;b&quot;:0.18431372940540314,&quot;a&quot;:1.0},&quot;position&quot;:0.68750},{&quot;color&quot;:{&quot;r&quot;:0.0,&quot;g&quot;:0.0,&quot;b&quot;:0.0,&quot;a&quot;:1.0},&quot;position&quot;:0.750},{&quot;color&quot;:{&quot;r&quot;:0.18431372940540314,&quot;g&quot;:0.039215687662363052,&quot;b&quot;:0.18431372940540314,&quot;a&quot;:1.0},&quot;position&quot;:0.81250},{&quot;color&quot;:{&quot;r&quot;:0.0,&quot;g&quot;:0.0,&quot;b&quot;:0.0,&quot;a&quot;:1.0},&quot;position&quot;:0.8750},{&quot;color&quot;:{&quot;r&quot;:0.18431372940540314,&quot;g&quot;:0.039215687662363052,&quot;b&quot;:0.18431372940540314,&quot;a&quot;:1.0},&quot;position&quot;:0.93750},{&quot;color&quot;:{&quot;r&quot;:0.0,&quot;g&quot;:0.0,&quot;b&quot;:0.0,&quot;a&quot;:1.0},&quot;position&quot;:1.0}],&quot;transform&quot;:{&quot;m00&quot;:90.509666442871094,&quot;m01&quot;:-90.509666442871094,&quot;m02&quot;:105.25484466552734,&quot;m10&quot;:90.509666442871094,&quot;m11&quot;:90.509666442871094,&quot;m12&quot;:14.745170593261719},&quot;opacity&quot;:1.0,&quot;blendMode&quot;:&quot;NORMAL&quot;,&quot;visible&quot;:true}"/></g><defs><clipPath id="d"><path d="m37.373 82.627 5.656 5.657L88.284 43.03l-5.657-5.656-5.656-5.657L31.716 76.97l5.657 5.656zm90.509-45.254-5.657 5.656 45.255 45.255 5.657-5.657 5.657-5.656-45.255-45.255-5.657 5.657zm45.255 90.509-5.657-5.657-45.255 45.255 5.657 5.657 5.657 5.657 45.255-45.255-5.657-5.657zm-90.51 45.255 5.657-5.657-45.255-45.255-5.656 5.657-5.657 5.657 45.255 45.255 5.656-5.657zm45.255 0-5.657-5.657c-9.372 9.373-24.568 9.373-33.94 0l-5.658 5.657-5.656 5.657c15.62 15.621 40.947 15.621 56.568 0l-5.657-5.657zm45.255-90.51-5.657 5.657c9.373 9.373 9.373 24.569 0 33.941l5.657 5.657 5.657 5.657c15.621-15.621 15.621-40.947 0-56.568l-5.657 5.656zm-90.51-45.254 5.657 5.656c9.373-9.372 24.569-9.372 33.941 0l5.657-5.656 5.657-5.657c-15.621-15.621-40.947-15.621-56.568 0l5.656 5.657zM37.373 82.627l-5.657-5.656c-15.621 15.62-15.621 40.947 0 56.568l5.657-5.657 5.656-5.657c-9.372-9.372-9.372-24.568 0-33.94l-5.656-5.658z"/></clipPath><clipPath id="a"><path fill="#fff" transform="rotate(-8 547.02 -631.997)" d="M0 0h62.8v62.8H0z"/></clipPath><clipPath id="b"><path fill="#fff" transform="translate(58.35 94.235)" d="M0 0h70.49v70.49H0z"/></clipPath><filter id="c" x="0" y="0" width="210.51" height="210.51" filterUnits="userSpaceOnUse" color-interpolation-filters="sRGB"><feFlood flood-opacity="0" result="BackgroundImageFix"/><feColorMatrix in="SourceAlpha" values="0 0 0 0 0 0 0 0 0 0 0 0 0 0 0 0 0 0 127 0" result="hardAlpha"/><feMorphology radius="4" operator="dilate" in="SourceAlpha" result="effect1_dropShadow_19_119"/><feOffset/><feGaussianBlur stdDeviation="8"/><feComposite in2="hardAlpha" operator="out"/><feColorMatrix values="0 0 0 0 0.0431373 0 0 0 0 0.00784314 0 0 0 0 0.0431373 0 0 0 0.5 0"/><feBlend in2="BackgroundImageFix" result="effect1_dropShadow_19_119"/><feBlend in="SourceGraphic" in2="effect1_dropShadow_19_119" result="shape"/></filter></defs></svg>
